src/pages/screens/Workflow/images/Sprint.svg

<svg width="315" height="326" viewBox="0 0 315 326" fill="none" xmlns="http://www.w3.org/2000/svg">
<path fill-rule="evenodd" clip-rule="evenodd" d="M221.518 160.884C264.851 160.884 300.182 126.621 301.895 83.7078C301.955 82.2159 300.383 81.2447 299.053 81.9221L275.876 93.7212C275.359 93.9844 274.983 94.4613 274.834 95.022C268.626 118.378 247.335 135.588 222.024 135.588C191.847 135.588 167.384 111.125 167.384 80.9485C167.384 50.7717 191.847 26.3086 222.024 26.3086C241.654 26.3086 258.867 36.6606 268.5 52.2032C268.524 52.2415 268.584 52.2205 268.578 52.1758C268.574 52.1454 268.603 52.1212 268.632 52.1306L285.21 57.5072C286.327 57.8695 287.514 57.1959 287.776 56.0513L291.17 41.2368C291.282 40.7464 291.206 40.2306 290.951 39.7966C276.983 15.9867 251.118 0 221.518 0C177.091 0 141.076 36.0151 141.076 80.442C141.076 124.869 177.091 160.884 221.518 160.884Z" fill="url(#paint0_linear_1_344)"/>
<path fill-rule="evenodd" clip-rule="evenodd" d="M155.843 326C100.508 326 55.4467 282.012 53.7206 227.095C53.6737 225.603 55.246 224.629 56.5766 225.306L87.0201 240.805C87.5372 241.068 87.9133 241.545 88.0604 242.106C95.8635 271.895 122.966 293.872 155.201 293.872C193.53 293.872 224.602 262.8 224.602 224.47C224.602 186.141 193.53 155.069 155.201 155.069C130.267 155.069 108.405 168.218 96.1689 187.959C96.1386 188.008 96.0627 187.981 96.0701 187.924C96.0752 187.885 96.038 187.854 96.0007 187.867L74.3834 194.878C73.2664 195.24 72.0791 194.566 71.8169 193.422L67.328 173.823C67.2156 173.333 67.2918 172.817 67.5455 172.383C85.262 142.04 118.172 121.652 155.843 121.652C212.272 121.652 258.017 167.397 258.017 223.826C258.017 280.255 212.272 326 155.843 326Z" fill="url(#paint1_linear_1_344)"/>
<path d="M4.02503 297.618C2.64076 296.399 3.50235 294.116 5.34629 294.116H154.568C155.672 294.116 156.568 295.012 156.568 296.116V324C156.568 325.105 155.672 326 154.568 326H5.34629C3.50235 326 2.64076 323.717 4.02503 322.499L16.4559 311.56C17.3609 310.763 17.3609 309.353 16.4559 308.557L4.02503 297.618Z" fill="url(#paint2_linear_1_344)"/>
<path d="M174.427 311.56C175.332 310.763 175.332 309.353 174.427 308.557L161.996 297.618C160.612 296.399 161.473 294.116 163.317 294.116H294.966C295.439 294.116 295.896 294.284 296.258 294.589L312.734 308.531C313.679 309.33 313.679 310.786 312.734 311.585L296.258 325.527C295.896 325.833 295.439 326 294.966 326H163.317C161.473 326 160.612 323.717 161.996 322.499L174.427 311.56Z" fill="url(#paint3_linear_1_344)"/>
<defs>
<linearGradient id="paint0_linear_1_344" x1="252.543" y1="8.50001" x2="174.543" y2="161" gradientUnits="userSpaceOnUse">
<stop stop-color="#2672FA"/>
<stop offset="1" stop-color="#621BD0"/>
</linearGradient>
<linearGradient id="paint1_linear_1_344" x1="210.543" y1="136" x2="8.54333" y2="326" gradientUnits="userSpaceOnUse">
<stop stop-color="#2671FA"/>
<stop offset="1" stop-color="#611CD1"/>
</linearGradient>
<linearGradient id="paint2_linear_1_344" x1="233.043" y1="149" x2="0.543459" y2="326" gradientUnits="userSpaceOnUse">
<stop stop-color="#2671FA"/>
<stop offset="1" stop-color="#621ACF"/>
</linearGradient>
<linearGradient id="paint3_linear_1_344" x1="225.043" y1="150.5" x2="2.04343" y2="326" gradientUnits="userSpaceOnUse">
<stop stop-color="#286FF9"/>
<stop offset="1" stop-color="#621BD0"/>
</linearGradient>
</defs>
</svg>

<svg width="315" height="326" fill="none" xmlns="http://www.w3.org/2000/svg"><path fill-rule="evenodd" clip-rule="evenodd" d="M221.518 160.884c43.333 0 78.664-34.263 80.377-77.176.06-1.492-1.512-2.463-2.842-1.786l-23.177 11.8c-.517.262-.893.74-1.042 1.3-6.208 23.356-27.499 40.566-52.81 40.566-30.177 0-54.64-24.463-54.64-54.64 0-30.176 24.463-54.64 54.64-54.64 19.63 0 36.843 10.353 46.476 25.895.024.038.084.017.078-.027a.042.042 0 0 1 .054-.045l16.578 5.376a2 2 0 0 0 2.566-1.456l3.394-14.814a1.975 1.975 0 0 0-.219-1.44C276.983 15.987 251.118 0 221.518 0c-44.427 0-80.442 36.015-80.442 80.442 0 44.427 36.015 80.442 80.442 80.442z" fill="url(#a)"/><path fill-rule="evenodd" clip-rule="evenodd" d="M155.843 326c-55.335 0-100.396-43.988-102.122-98.905-.047-1.492 1.525-2.466 2.856-1.789l30.443 15.499c.517.263.893.74 1.04 1.301 7.803 29.789 34.906 51.766 67.141 51.766 38.329 0 69.401-31.072 69.401-69.402 0-38.329-31.072-69.401-69.401-69.401-24.934 0-46.796 13.149-59.032 32.89-.03.049-.106.022-.099-.035a.053.053 0 0 0-.07-.057l-21.617 7.011a2 2 0 0 1-2.566-1.456l-4.489-19.599a1.978 1.978 0 0 1 .218-1.44c17.716-30.343 50.626-50.731 88.297-50.731 56.429 0 102.174 45.745 102.174 102.174 0 56.429-45.745 102.174-102.174 102.174z" fill="url(#b)"/><path d="M4.025 297.618c-1.384-1.219-.523-3.502 1.321-3.502h149.222a2 2 0 0 1 2 2V324a2 2 0 0 1-2 2H5.346c-1.844 0-2.705-2.283-1.321-3.501l12.43-10.939a2 2 0 0 0 0-3.003l-12.43-10.939z" fill="url(#c)"/><path d="M174.427 311.56a2 2 0 0 0 0-3.003l-12.431-10.939c-1.384-1.219-.523-3.502 1.321-3.502h131.649c.473 0 .93.168 1.292.473l16.476 13.942a2 2 0 0 1 0 3.054l-16.476 13.942a2 2 0 0 1-1.292.473H163.317c-1.844 0-2.705-2.283-1.321-3.501l12.431-10.939z" fill="url(#d)"/><defs><linearGradient id="a" x1="252.543" y1="8.5" x2="174.543" y2="161" gradientUnits="userSpaceOnUse"><stop stop-color="#2672FA"/><stop offset="1" stop-color="#621BD0"/></linearGradient><linearGradient id="b" x1="210.543" y1="136" x2="8.543" y2="326" gradientUnits="userSpaceOnUse"><stop stop-color="#2671FA"/><stop offset="1" stop-color="#611CD1"/></linearGradient><linearGradient id="c" x1="233.043" y1="149" x2=".543" y2="326" gradientUnits="userSpaceOnUse"><stop stop-color="#2671FA"/><stop offset="1" stop-color="#621ACF"/></linearGradient><linearGradient id="d" x1="225.043" y1="150.5" x2="2.043" y2="326" gradientUnits="userSpaceOnUse"><stop stop-color="#286FF9"/><stop offset="1" stop-color="#621BD0"/></linearGradient></defs></svg>
